assets/icons/navigation/close.svg

<svg viewBox="0 0 24 24" xmlns="http://www.w3.org/2000/svg">
<path d="M11.9998 13.3998L7.0998 18.2998C6.91647 18.4831 6.68314 18.5748 6.3998 18.5748C6.11647 18.5748 5.88314 18.4831 5.6998 18.2998C5.51647 18.1165 5.4248 17.8831 5.4248 17.5998C5.4248 17.3165 5.51647 17.0831 5.6998 16.8998L10.5998 11.9998L5.6998 7.0998C5.51647 6.91647 5.4248 6.68314 5.4248 6.3998C5.4248 6.11647 5.51647 5.88314 5.6998 5.6998C5.88314 5.51647 6.11647 5.4248 6.3998 5.4248C6.68314 5.4248 6.91647 5.51647 7.0998 5.6998L11.9998 10.5998L16.8998 5.6998C17.0831 5.51647 17.3165 5.4248 17.5998 5.4248C17.8831 5.4248 18.1165 5.51647 18.2998 5.6998C18.4831 5.88314 18.5748 6.11647 18.5748 6.3998C18.5748 6.68314 18.4831 6.91647 18.2998 7.0998L13.3998 11.9998L18.2998 16.8998C18.4831 17.0831 18.5748 17.3165 18.5748 17.5998C18.5748 17.8831 18.4831 18.1165 18.2998 18.2998C18.1165 18.4831 17.8831 18.5748 17.5998 18.5748C17.3165 18.5748 17.0831 18.4831 16.8998 18.2998L11.9998 13.3998Z" fill="inherit"/>
</svg>

<svg viewBox="0 0 24 24" xmlns="http://www.w3.org/2000/svg"><path d="m12 13.4-4.9 4.9a1 1 0 0 1-.7.3 1 1 0 0 1-.7-.3 1 1 0 0 1-.3-.7c0-.3.1-.5.3-.7l4.9-4.9-4.9-4.9a1 1 0 0 1-.3-.7c0-.3.1-.5.3-.7.2-.2.4-.3.7-.3.3 0 .5.1.7.3l4.9 4.9 4.9-4.9c.2-.2.4-.3.7-.3.3 0 .5.1.7.3.2.2.3.4.3.7 0 .3-.1.5-.3.7L13.4 12l4.9 4.9c.2.2.3.4.3.7 0 .3-.1.5-.3.7a1 1 0 0 1-.7.3 1 1 0 0 1-.7-.3L12 13.4Z" fill="inherit"/></svg>
